X:71
T:Jackson's
Z: id:dc-jig-59
M:6/8
L:1/8
K:G Major
A|BAG Bcd|edc efg|dcB gdB|ABA ABc|!
BAG Bcd|edc efg|dcB gdB|AGF G2:|!
f|g3 bag|fed ^cde|dcB gdB|ABA ABd|!
g3 bag|fed ^cde|dcB gdB|AGF GBd|!
g3 bag|fed ^cde|dcB gdB|ABA ABc|!
BAG Bcd|edc efg|dcB gdB|AGF G2|]!

